svg/battery-empty.svg

<svg xmlns="http://www.w3.org/2000/svg" width="8" height="8" viewBox="0 0 8 8">
  <path d="M.09 0c-.06 0-.09.04-.09.09v5.81c0 .05.04.09.09.09h6.81c.05 0 .09-.04.09-.09v-1.91h1v-2h-1v-1.91c0-.06-.04-.09-.09-.09h-6.81zm.91 1h5v4h-5v-4z" transform="translate(0 1)" />
</svg>

<?xml version="1.0" encoding="UTF-8" standalone="no"?>
<svg
   width="8"
   height="8"
   viewBox="0 0 8 8"
   version="1.1"
   id="svg1"
   sodipodi:docname="battery-empty.svg"
   inkscape:version="1.3 (0e150ed6c4, 2023-07-21)"
   xmlns:inkscape="http://www.inkscape.org/namespaces/inkscape"
   xmlns:sodipodi="http://sodipodi.sourceforge.net/DTD/sodipodi-0.dtd"
   xmlns="http://www.w3.org/2000/svg"
   xmlns:svg="http://www.w3.org/2000/svg">
  <defs
     id="defs1" />
  <sodipodi:namedview
     id="namedview1"
     pagecolor="#505050"
     bordercolor="#eeeeee"
     borderopacity="1"
     inkscape:showpageshadow="0"
     inkscape:pageopacity="0"
     inkscape:pagecheckerboard="0"
     inkscape:deskcolor="#505050"
     showgrid="false"
     inkscape:zoom="108.12"
     inkscape:cx="4.000185"
     inkscape:cy="4.000185"
     inkscape:window-width="2512"
     inkscape:window-height="1057"
     inkscape:window-x="40"
     inkscape:window-y="-8"
     inkscape:window-maximized="1"
     inkscape:current-layer="svg1" />
  <rect
     style="fill:#ff1161;fill-rule:evenodd;stroke:#11a1ff;stroke-width:0;stroke-dasharray:none;stroke-opacity:0"
     id="rect1"
     width="7.9999943"
     height="7.9999971"
     x="2.8610229e-06"
     y="1.4305115e-06" />
  <path
     d="M 0.09,0 C 0.03,0 0,0.04 0,0.09 V 5.9 C 0,5.95 0.04,5.99 0.09,5.99 H 6.9 C 6.95,5.99 6.99,5.95 6.99,5.9 V 3.99 h 1 v -2 h -1 V 0.08 C 6.99,0.02 6.95,-0.01 6.9,-0.01 H 0.09 Z M 1,1 H 6 V 5 H 1 Z"
     transform="translate(0,1)"
     id="path1"
     style="fill:#11a1ff" />
  <rect
     style="fill:#ff1161;fill-rule:evenodd;stroke:#11a1ff;stroke-width:0;stroke-dasharray:none;stroke-opacity:0"
     id="rect2"
     width="0.18991134"
     height="2.0439305"
     x="6.9865651"
     y="2.9872832" />
  <rect
     style="fill:#f6e04e;fill-rule:evenodd;stroke:#11a1ff;stroke-width:0;stroke-dasharray:none;stroke-opacity:0"
     id="rect3"
     width="0.83237058"
     height="2.0254338"
     x="7.1583805"
     y="2.9780345"
     ry="0" />
</svg>
